assets/images/typescript.svg

<?xml version="1.0" encoding="UTF-8"?>
<!DOCTYPE svg  PUBLIC '-//W3C//DTD SVG 1.1//EN'  'http://www.w3.org/Graphics/SVG/1.1/DTD/svg11.dtd'>
<svg clip-rule="evenodd" fill-rule="evenodd" stroke-linejoin="round" stroke-miterlimit="2" version="1.1" viewBox="0 0 100 100" xml:space="preserve" xmlns="http://www.w3.org/2000/svg">
    <g transform="matrix(.38077 0 0 .38077 .5 .5)">
        <path d="m9.75 0h240.5c5.385 0 9.75 4.365 9.75 9.75v240.5c0 5.385-4.365 9.75-9.75 9.75h-240.5c-5.385 0-9.75-4.365-9.75-9.75v-240.5c0-5.385 4.365-9.75 9.75-9.75zm134.78 138.32v-21.324h-92.532v21.324h33.036v94.946h26.298v-94.946h33.198zm10.485 92.439c4.241 2.162 9.257 3.784 15.048 4.865 5.79 1.081 11.893 1.622 18.309 1.622 6.253 0 12.193-0.595 17.82-1.784 5.628-1.189 10.562-3.149 14.803-5.879s7.598-6.297 10.072-10.703 3.711-9.852 3.711-16.339c0-4.703-0.707-8.824-2.12-12.365-1.414-3.541-3.453-6.69-6.117-9.447s-5.859-5.23-9.583-7.419c-3.725-2.189-7.925-4.257-12.601-6.203-3.425-1.406-6.497-2.771-9.216-4.095-2.718-1.324-5.029-2.676-6.932-4.054-1.903-1.379-3.371-2.838-4.404-4.379-1.033-1.54-1.55-3.284-1.55-5.23 0-1.784 0.463-3.392 1.387-4.824 0.924-1.433 2.229-2.663 3.915-3.69 1.685-1.027 3.751-1.824 6.198-2.392 2.447-0.567 5.165-0.851 8.156-0.851 2.174 0 4.472 0.162 6.891 0.486 2.42 0.325 4.853 0.825 7.299 1.5 2.447 0.676 4.826 1.527 7.137 2.555 2.311 1.027 4.445 2.216 6.402 3.567v-24.244c-3.969-1.514-8.305-2.636-13.008-3.365-4.704-0.73-10.1-1.095-16.189-1.095-6.199 0-12.071 0.662-17.617 1.987-5.546 1.324-10.425 3.392-14.639 6.203s-7.544 6.392-9.991 10.743c-2.447 4.352-3.67 9.555-3.67 15.609 0 7.731 2.243 14.326 6.729 19.785 4.485 5.46 11.295 10.082 20.43 13.866 3.588 1.46 6.932 2.892 10.031 4.298 3.099 1.405 5.777 2.865 8.033 4.378 2.257 1.514 4.037 3.162 5.342 4.946s1.958 3.811 1.958 6.082c0 1.676-0.408 3.23-1.224 4.662-0.815 1.433-2.052 2.676-3.71 3.73-1.659 1.054-3.725 1.879-6.199 2.473-2.474 0.595-5.369 0.892-8.686 0.892-5.654 0-11.254-0.986-16.8-2.959s-10.684-4.933-15.415-8.879v25.947z" fill-rule="nonzero"/>
    </g>
</svg>

<?xml version="1.0" encoding="UTF-8" standalone="no"?>
<!DOCTYPE svg PUBLIC "-//W3C//DTD SVG 1.1//EN" "http://www.w3.org/Graphics/SVG/1.1/DTD/svg11.dtd">
<svg width="100%" height="100%" viewBox="0 0 100 100" version="1.1" xmlns="http://www.w3.org/2000/svg" xmlns:xlink="http://www.w3.org/1999/xlink" xml:space="preserve" xmlns:serif="http://www.serif.com/" style="fill-rule:evenodd;clip-rule:evenodd;stroke-linejoin:round;stroke-miterlimit:2;">
    <g id="typescript" transform="matrix(0.380769,0,0,0.380769,0.5,0.5)">
        <path d="M9.75,0L250.25,0C255.635,0 260,4.365 260,9.75L260,250.25C260,255.635 255.635,260 250.25,260L9.75,260C4.365,260 0,255.635 0,250.25L0,9.75C0,4.365 4.365,0 9.75,0ZM144.53,138.32L144.53,116.996L51.998,116.996L51.998,138.32L85.034,138.32L85.034,233.266L111.332,233.266L111.332,138.32L144.53,138.32ZM155.015,230.759C159.256,232.921 164.272,234.543 170.063,235.624C175.853,236.705 181.956,237.246 188.372,237.246C194.625,237.246 200.565,236.651 206.192,235.462C211.82,234.273 216.754,232.313 220.995,229.583C225.236,226.853 228.593,223.286 231.067,218.88C233.541,214.474 234.778,209.028 234.778,202.541C234.778,197.838 234.071,193.717 232.658,190.176C231.244,186.635 229.205,183.486 226.541,180.729C223.877,177.972 220.682,175.499 216.958,173.31C213.233,171.121 209.033,169.053 204.357,167.107C200.932,165.701 197.86,164.336 195.141,163.012C192.423,161.688 190.112,160.336 188.209,158.958C186.306,157.579 184.838,156.12 183.805,154.579C182.772,153.039 182.255,151.295 182.255,149.349C182.255,147.565 182.718,145.957 183.642,144.525C184.566,143.092 185.871,141.862 187.557,140.835C189.242,139.808 191.308,139.011 193.755,138.443C196.202,137.876 198.92,137.592 201.911,137.592C204.085,137.592 206.383,137.754 208.802,138.078C211.222,138.403 213.655,138.903 216.101,139.578C218.548,140.254 220.927,141.105 223.238,142.133C225.549,143.16 227.683,144.349 229.64,145.7L229.64,121.456C225.671,119.942 221.335,118.82 216.632,118.091C211.928,117.361 206.532,116.996 200.443,116.996C194.244,116.996 188.372,117.658 182.826,118.983C177.28,120.307 172.401,122.375 168.187,125.186C163.973,127.997 160.643,131.578 158.196,135.929C155.749,140.281 154.526,145.484 154.526,151.538C154.526,159.269 156.769,165.864 161.255,171.323C165.74,176.783 172.55,181.405 181.685,185.189C185.273,186.649 188.617,188.081 191.716,189.487C194.815,190.892 197.493,192.352 199.749,193.865C202.006,195.379 203.786,197.027 205.091,198.811C206.396,200.595 207.049,202.622 207.049,204.893C207.049,206.569 206.641,208.123 205.825,209.555C205.01,210.988 203.773,212.231 202.115,213.285C200.456,214.339 198.39,215.164 195.916,215.758C193.442,216.353 190.547,216.65 187.23,216.65C181.576,216.65 175.976,215.664 170.43,213.691C164.884,211.718 159.746,208.758 155.015,204.812L155.015,230.759Z" style="fill-rule:nonzero;"/>
    </g>
</svg>
